X:109
T:Hur skall jag till lilla v\"annen komma
T:Hur du v\"ander och hur du sv\"anger dig
R:sl-polska
A:\"Osterg\"otland
B:SvL \"Ogl 496 fr{\aa}n Asby
Z:id:hn-sp-109
M:3/4
L:1/16
K:G
D2G2 G2G2 G2G2 | F2A2 (c2B2) G2B2 | B2A2 A2A2 F2A2 | G2E2 D8 :|
B3c d4 B2G2 | F2G2 A2B2 c2D2 | D2D2 c2B2 A2G2 | F2G2 A8 |
B3c d4 B2G2 | F2G2 A2B2 c4 | D2D2 c2B2 A2G2 | F2A2 G8 ||
W:1. Hur skall jag till lilla v\"annen komma,
W:   som varken {\aa}ker, rider eller g{\aa}r?
W:   Jag skall v\"anta till sol och sommardag
W:   och segla \"over de b\"oljor bl{\aa}.
W:2. Hur du v\"ander och hur du sv\"anger dig,
W:   s{\aa} laga att du har en trogen v\"an.
W:   Ty snart f\"org{\aa}r dina unga dagar
W:   och komma aldrig mer igen.
W:
W:
W:
W:
W:
W:
W:
W:
W:
W:

